X: 12303
T: Fairy Toddler
R: jig
M: 6/8
K: Dmajor
|:A|F2 F FEF|DF/G/A d3|Bcd AFD|E2 d cBA|
FGF F^EF|DFA d2 d|Bcd AFD|EFE D2:|
|:f|afd Adf|gec Acg|fed B2 d|e2 d cc/B/A|
a2 f A2 f|g2 e A2 f|gbg f/g/af|gec d2:|

